X: 1
T: the Ugly Duckling
C: Liz Carroll
Z: 2001 John Chambers <jc@trillian.mit.edu>
M: C
L: 1/8
K: G
|: d2dB G2GA | Bcd2 e2d2 | d2dB G2GA | Bcd2 e2dd  | ecc2 edd2 | eced d2d2 |
|  ecc2 eddc | Bcd2 A4  :: GFED D2BA | GFED DCB,C | EGDG EGDG | Bcd2 A4  :|
